!!!SOCIAL_FUNCTION:	songs of war
!!!PDT:	1913
!!!OTL: No_30_Song_of_a_Man_Who_Rushed_Toward_the_Enemy.krn
!!!REG: Great_Lakes
!!!LANG: Non-Tone
!!!LING_GROUP: Algonquin
**kern	**kern
*staff2	*staff1
*clefF4	*clefG2
*k[b-e-a-d-]	*k[b-e-a-d-]
*M2/4	*M2/4
8r	16f/LL
.	16f/JJ
=1	=1
8GG/L	8f/L
8GG/J	8e-/J
8GG/L	8f/L
8GG/J	8e-/J
=2||	=2||
*M3/4	*M3/4
8GG/L	8.c/L
8GG/J	.
.	16c/Jk
8GG/L	4.c/
8GG/J	.
8GG/L	.
8GG/J	16f/LL
.	16f/JJ
=3||	=3||
*M2/4	*M2/4
2r	8f/L
.	8e-/J
.	8f/L
.	8e-/J
*	*clefF4
=4||	=4||
*M3/4	*M3/4
2.r	8.c\L
.	16c\Jk
.	4..c\
.	16c\
=5	=5
2.r	8.c\L
.	16c\Jk
.	8.c\L
.	16c\Jk
.	8c\L
.	16.Bn\L
.	32c\JJk
=6	=6
2.r	4c\
.	8.c\L
.	16c\Jk
.	8c\L
.	8B-\J
=7||	=7||
*M2/4	*M2/4
2r	8B-\L
.	8A-\J
.	(16B-\LL
.	16A-\)
.	16A-\
.	16F\JJ
=8	=8
2r	8.C/L
.	16C/Jk
.	8C\L
.	16F\L
.	16F\JJ
=9	=9
2r	8F\L
.	8E-\J
.	8F\L
.	8E-\J
=10||	=10||
*M3/4	*M3/4
2.r	8.C/L
.	16C/Jk
.	4.C/
.	8r
=	=
*-	*-
